dots/.icons/Reversal-black/status/symbolic/audio-volume-muted-blocking-symbolic.svg

<svg width="16" height="16" version="1.1" xmlns="http://www.w3.org/2000/svg">
 <g enable-background="new" fill="#f55">
  <rect y="6" width="5" height="4" ry="1" fill-rule="evenodd" style="paint-order:normal"/>
  <path d="m6 3-3 3v4l3 3z"/>
  <g fill-rule="evenodd">
   <path d="m13.139 1.4277c-0.54546-0.42773-1.1387 0.22461-0.68359 0.73242 1.6202 1.5104 2.5416 3.6249 2.5449 5.8398-0.0026 2.2205-0.92793 4.3401-2.5547 5.8516-0.44531 0.47165 0.18064 1.1484 0.67774 0.72852 1.8304-1.6992 2.8725-4.0825 2.877-6.5801-0.00257-2.4925-1.0386-4.8722-2.8613-6.5723z" style="paint-order:normal"/>
   <path d="m10.775 2.8887c-0.58741-0.53488-1.1988 0.22518-0.68359 0.73242 1.2147 1.1326 1.9056 2.7181 1.9082 4.3789-0.0019 1.6654-0.69594 3.2551-1.916 4.3887-0.46835 0.44623 0.17346 1.1467 0.67969 0.72852 1.423-1.3216 2.233-3.1751 2.2363-5.1172-0.001895-1.9383-0.80739-3.789-2.2246-5.1113z" style="paint-order:normal"/>
   <path d="m8.4102 4.3496c-0.52095-0.49369-1.1551 0.22003-0.68359 0.73047 0.81045 0.75501 1.2715 1.8123 1.2734 2.9199-0.001278 1.1103-0.46396 2.1701-1.2773 2.9258-0.47259 0.42993 0.13957 1.1522 0.67969 0.73047 1.0168-0.94425 1.5955-2.2686 1.5977-3.6562-0.0017246-1.3844-0.57738-2.7062-1.5898-3.6504z" style="paint-order:normal"/>
  </g>
 </g>
</svg>

<svg width="16" height="16" version="1.1" xmlns="http://www.w3.org/2000/svg">
 <g transform="translate(0,-4.7914e-4)" fill="#363636" opacity=".35">
  <path d="m6 3.0005-3 3h-2c-0.554 0-1 0.446-1 1v2c0 0.554 0.446 1 1 1h2l3 3v-10z"/>
  <path d="M 13.139,1.428 C 12.594,1 12,1.652 12.455,2.16 A 8,8 0 0 1 15,8 8,8 0 0 1 12.446,13.852 C 12,14.323 12.626,15 13.123,14.58 A 9,9 0 0 0 16,8 9,9 0 0 0 13.139,1.428 Z"/>
  <path d="m10.775 2.889c-0.587-0.535-1.199 0.225-0.684 0.732a6 6 0 0 1 1.909 4.379 6 6 0 0 1-1.916 4.389c-0.469 0.446 0.173 1.146 0.68 0.728a7 7 0 0 0 2.236-5.117 7 7 0 0 0-2.225-5.111z"/>
  <path d="M 8.41,4.35 C 7.89,3.856 7.255,4.57 7.727,5.08 A 4,4 0 0 1 9,8 4,4 0 0 1 7.723,10.926 c -0.473,0.43 0.14,1.152 0.68,0.73 A 5,5 0 0 0 10,8 5,5 0 0 0 8.41,4.35 Z"/>
 </g>
 <rect transform="rotate(45)" x="1.3137" y="-.5" width="20" height="1" rx=".5" ry=".5" fill="#363636"/>
</svg>
